X:1
T:Title
%%score [ 1 2 3 4 ]
L:1/8
Q:1/4=120
M:2/2
K:Bb
V:1 treble nm="S."
V:2 treble nm="A."
V:3 treble-8 nm="T."
V:4 bass nm="B."
V:1
 z8 | z8 | z2 D2"^If love be blind" F2 G2 | A4 z4 | z2 B2 A2 G2 | %5
w: ||If love be|blind,|how hath he|
 F3"^Thomas Bateson\nc. 1570 - 1630" E D2 C2 | D2 F2 F2 F2 | G4 F2 B2- | B2 A2 G2 G2 | F2 B2 A4 | %10
w: then the sight, the|sight With beau- ty's|beams my care|* less heart to|wound, to wound,|
 F2 G4 A2 | G2 G2 A2 B2 | GA B4 A2 | B2 F2 F2 G2 | F2 B2 B2 B2 | B2 B2 AGFG | A2 d2 c2 d2 | %17
w: my care- less|heart to wound, my|care- less heart to|wound? Or if a|boy, or if a|boy, how hath he then the|might, the might, how|
 cBAB c2 z2 | z4 z2 B2 | AGFG A4 | z2 B2 B2 B2 | e3 e d2 c2 | B2 A2 G2 c2 | c2 =B2 c2 G2 | %24
w: hath he then the might,|how|hath he then the might,|The migh- tiest|con- que- rors to|bring to ground, to|bring to ground, the|
 A2 F2 B3 A | G4 G4 | F6 F2 | F4 z4 | z8 | z2 B2 GFGA | B2 A2 G2 G2 | A8 | z2 F2 G2 F2 | %33
w: migh- tiest con- que-|rors to|bring to|ground?||O no, he is not|blind, but I that|lead|My thoughts the|
 B3 A G2 F2 | =E2 F2 G2 c2 | c2 c2 c3 B | A4 z4 | z2 F2 F2 B2 | A4 z2 A2 | B3 B B2 _A2 | G4 (F4- | %41
w: ways that bring to|rest- less fears, that|bring to rest- less|fears;|Nor yet a|boy, but|I that live in|dread, in|
 F2 =ED E4) | F8 | z2 F3 G A2 | B6 A2 | G3 G F2 B2 | A2 A3 B c2 | d3 c B3 A | (G2 A2 B2) G2 | %49
w: |dread|Mix- ed with|hope, and|seek for joy in|tears, mix- ed with|hope and seek for|joy * * in|
 A2 F2 (B4- | B2 AG A2) A2 | B8 |] %52
w: tears, for joy|* * * * in|tears.|
V:2
 z2 B,2 D2 B,2 | F8 | z2 B2 A2 G2 | F2 E2 D4 | z4 z2 E2 | D2 C2 B,2 A,2 | B,2 D2 D2 D2 | %7
w: If love be|blind,|how hath he|then the sight,|how|hath he then the|sight With beau- ty's|
 E4 D2 D2- | D=E F4 E2 | F2 D2 C4 | D2 =E4 F2 | F2 =E2 F2 F2 | !courtesy!_E2 D2 C2 (FE) | %13
w: beams my care|* less heart to|wound, to wound,|my care- less|heart to wound, my|care- less heart to *|
 D2 D2 D2 E2 | D2 F2 F2 G2 | F4 z4 | z2 B2 AGFG | A4 z2 D2 | CB,A,B, C2 F2 | F8 | z2 F2 F2 D2 | %21
w: wound? Or if a|boy, or if a|boy,|how hath he then the|might, how|hath he then the might, the|might,|The migh- tiest|
 G3 G ^F2 G2 | G2 ^F2 G2 G2 | G3 F =E4 | z2 C2 D2 B,2 | E3 D C2 B,2 | A,2 (B,2 C4) | D2 F2 DCDE | %28
w: con- que- rors to|bring to ground, to|bring to ground,|the migh- tiest|con- que- rors to|bring to *|ground? O no, he is not|
 F2 F2 G2 G2 | F2 F2 EDEF | G2 F2 F2 =E2 | F2 C2 A,2 C2 | F3 E D2 C2 | B,2 F2 D2 z F | G2 A2 B3 A | %35
w: blind, but I that|lead, O no, he is not|blind, but I that|lead My thoughts the|ways that bring to|rest- less fears, my|thoughts the ways that|
 G2 F2 F2 =E2 | F4 z4 | z2 C2 C2 D2 | C4 z2 F2 | G3 G G2 F2 | =E4 C4 | C6 B,2 | A,4 z4 | %43
w: bring to rest- less|fears;|Nor yet a|boy, but|I that live in|dread, that|live in|dread|
 z2 D3 E F2 | G6 F2 | E2 E2 D2 F2 | F2 F3 G A2 | B3 A G2 F2 | E8- | E4 (D2 E2) | F3 G F2 E2 | D8 |] %52
w: Mix- ed with|hope, and|seek for joy in|tears, mix- ed with|hope and seek for|joy|* in *|tears, for joy in|tears.|
V:3
 z8 | z2 F2 A2 F2 | B4 z2 e2 | d2 c2 B2 G2 | c2 (de) f2 c2 | (AB) c2 (de) f2 | f2 B2 B2 B2 | %7
w: |If love be|blind, how|hath he then the|sight, the * sight, how|hath * he then * the|sight With beau- ty's|
 E4 B2 G2- | G2 F2 c2 c2 | F2 G2 A4 | z8 | z4 z2 d2 | c2 B2 c2 c2 | B4 z4 | z2 d2 d2 e2 | %15
w: beams my care|* less heart to|wound, to wound,||my|care- less heart to|wound?|Or if a|
 d2 B2 fede | f4 z2 B2 | AGFG A2 B2 | F4 z2 d2 | cBAB c4 | z2 d2 d2 d2 | c3 B A2 G2 | d3 c =B2 e2 | %23
w: boy, how hath he then the|might, how|hath he then the might, the|might, how|hath he then the might,|The migh- tiest|con- que- rors to|bring to ground, to|
 d2 d2 c4- | c4 z2 B2 | c2 B2 e3 d | c2 B2 B2 A2 | B2 d2 BABc | d2 d2 e2 e2 | d4 z4 | z4 z2 c2 | %31
w: bring to ground,|* the|migh- tiest con- que-|rors to bring to|ground? O no, he is not|blind, but I that|lead,|My|
 A2 c2 f3 e | d2 c2 B2 A2 | B2 F2 G2 A2 | B3 A G2 F2 | =E2 (F2 G4) | F2 c2 c2 d2 | c3 B A(GFG) | %38
w: thoughts the ways that|bring to rest- less|fears, my thoughts the|ways that bring to|rest- less *|fears; Nor yet a|boy, nor yet a * *|
 A4 z2 c2 | e3 e e2 c2 | c3 B _A4 | (G2 F2 G4) | F2 A3 B c2 | d6 c2 | B3 A G2 (AB) | c3 B A2 d2 | %46
w: boy, but|I that live in|dread, that live|in * *|dread, Mix- ed with|hope, and|seek for joy in *|tears, for joy in|
 c8 | z2 B3 c d2 | e2 d2 c2 B2 | A4 (B4 | c8) | B8 |] %52
w: tears,|mix- ed with|hope, and seek for|joy in||tears.|
V:4
 B,,8 | D,8 | B,,8 | F,4 z2 B,2 | A,2 G,2 F,2 E,2 | F,6 F,2 | B,,4 z4 | z8 | z4 z2 C,2 | %9
w: If|love|be|blind, how|hath he then the|sight, the|sight||To|
"^This edition produced by Andrew Sims 2018" D,2 B,,2 F,4 | F,2 C4 A,2 | %11
w: wound, to wound,|my care- less|
"^This edition  Andrew Sims 2000" B,2 C2 F,2 D,2 | E,2 B,,2 F,2 F,2 | B,,4 z4 | z2 B,2 B,2 G,2 | %15
w: heart to wound, my|care- less heart to|wound?|Or if a|
 B,4 z4 | z2 B,,2 F,E,D,E, | F,4 z2 B,2 | A,G,F,G, A,2 B,2 | F,8 | z2 B,,2 B,,2 B,,2 | %21
w: boy,|how hath he then the|might, how|hath he then the might, the|might,|The migh- tiest|
 C,3 C, D,2 E,2 | D,2 D,2 G,2 G,2 | G,2 G,2 C3 B, | A,2 A,2 G,3 F, | E,6 E,2 | F,6 F,2 | B,,4 z4 | %28
w: con- que- rors to|bring to ground the|migh- tiest con- que-|rors to bring to|ground, to|bring to|ground?|
 z2 B,2 G,F,G,A, | B,2 B,2 C2 C2 | B,2 F,2 C2 C,2 | F,8 | z4 z2 F,2 | G,2 D,2 B,3 A, | %34
w: O no, he is not|blind, but I that|lead, but I that|lead|My|thoughts the ways that|
 G,2 F,2 =E,2 F,2 | C,8 | z2 F,2 F,2 B,2 | A,3 G, F, (E,D,E,) | F,4 z2 F,2 | E,3 E, E,2 F,2 | %40
w: bring to rest- less|fears;|Nor yet a|boy, nor yet a * *|boy, but|I that live in|
 C,8- | C,8 | z2 F,3 G, A,2 | B,6 A,2 | G,3 F, E,2 F,2 | C,3 C, D,2 B,,2 | F,8 | z4 z2 B,,2 | %48
w: dread||Mix- ed with|hope, and|seek for joy in|tears, for joy in|tears,|and|
 E,6 E,2 | F,8 | F,8 | B,,8 |] %52
w: seek for|joy|in|tears.|

